Obsidian/status/16s/dino-status-online.svg

<svg height="16" width="16" xmlns="http://www.w3.org/2000/svg"><path d="m8 1a7 7 0 0 0 -7 7 7 7 0 0 0 7 7 7 7 0 0 0 7-7 7 7 0 0 0 -7-7zm1.984375 1.9355469c.563912-.00902 1.023367.4497413 1.015625 1.0136719v2.9101562c.0179.1081312.0179.2180407 0 .3261719v3.7968751.017578.986328l-2 .013672h-3l-1-1v-3.9824219l1-1h3v-2.0683593c-.0075696-.5513987.432995-1.0048464.984375-1.0136719zm-2.984375 5.0820312v1.9824219h2v-1.9824219z" fill="#d3dae3"/></svg>

<svg xmlns="http://www.w3.org/2000/svg" width="16" height="16" version="1.1">
 <defs>
  <style id="current-color-scheme" type="text/css">
   .ColorScheme-Text { color:#d3dae3; } .ColorScheme-Highlight { color:#5294e2; }
  </style>
 </defs>
 <path style="fill:currentColor" class="ColorScheme-Text" d="M 8 1 A 7 7 0 0 0 1 8 A 7 7 0 0 0 8 15 A 7 7 0 0 0 15 8 A 7 7 0 0 0 8 1 z M 9.984375 2.9355469 C 10.548287 2.9265269 11.007742 3.3852882 11 3.9492188 L 11 6.859375 C 11.0179 6.9675062 11.0179 7.0774157 11 7.1855469 L 11 10.982422 L 11 11 L 11 11.986328 L 9 12 L 6 12 L 5 11 L 5 7.0175781 L 6 6.0175781 L 9 6.0175781 L 9 3.9492188 C 8.9924304 3.3978201 9.432995 2.9443724 9.984375 2.9355469 z M 7 8.0175781 L 7 10 L 9 10 L 9 8.0175781 L 7 8.0175781 z"/>
</svg>
